src/assets/duotone/UserEdit.svg

<svg width="24" height="24" viewBox="0 0 24 24"  xmlns="http://www.w3.org/2000/svg">
<path d="M12 12C14.7614 12 17 9.76142 17 7C17 4.23858 14.7614 2 12 2C9.23858 2 7 4.23858 7 7C7 9.76142 9.23858 12 12 12Z" />
<path opacity="0.4" d="M12.0002 14.5C6.99018 14.5 2.91016 17.86 2.91016 22C2.91016 22.28 3.13016 22.5 3.41016 22.5H20.5902C20.8702 22.5 21.0902 22.28 21.0902 22C21.0902 17.86 17.0102 14.5 12.0002 14.5Z" />
<path d="M21.43 14.7398C20.53 13.8398 19.8201 14.1298 19.2101 14.7398L15.67 18.2799C15.53 18.4199 15.4 18.6798 15.37 18.8698L15.18 20.2198C15.11 20.7098 15.45 21.0498 15.94 20.9798L17.29 20.7898C17.48 20.7598 17.75 20.6298 17.88 20.4898L21.42 16.9499C22.04 16.3499 22.33 15.6398 21.43 14.7398Z" />
</svg>

<?xml version="1.0" encoding="UTF-8"?>
<svg width="24" height="24" viewBox="0 0 24 24" xmlns="http://www.w3.org/2000/svg">
 <path d="m12 12c2.7614 0 5-2.2386 5-5s-2.2386-5-5-5c-2.7614 0-5 2.2386-5 5s2.2386 5 5 5z"/>
 <path d="m12 14.5c-5.01 0-9.09 3.36-9.09 7.5 0 0.28 0.22 0.5 0.5 0.5h17.18c0.28 0 0.5-0.22 0.5-0.5 0-4.14-4.08-7.5-9.09-7.5z" opacity=".4"/>
 <path d="m21.43 14.74c-0.9-0.9-1.6099-0.61-2.2199 0l-3.5401 3.5401c-0.14 0.14-0.27 0.3999-0.3 0.5899l-0.19 1.35c-0.07 0.49 0.27 0.83 0.76 0.76l1.35-0.19c0.19-0.03 0.46-0.16 0.59-0.3l3.54-3.5399c0.62-0.6 0.91-1.3101 0.01-2.2101z"/>
</svg>
